X: 1
T:The Newt
M:4/4
C:Davis Sweet
S:RJJ ex NTMM
N:Lummoxshire Lead Miners
A:Amble on Down
O:Ale
R:Reel
Z:
K:G
I:speed 200
P:A
|: GG B2 AA c2 | BB AA G2 z2 | GG B2 AA c2 | BB AA G2 z2 :|\
P:B
|: dd cc BB A2 | dd cc B2 z2 | GG AA BB c2 | BB AA G2 z2 :|\
P:C
|: G2 G2 A2 A2 |\
M:3/4
B2 B2 c2 |\
M:4/4
BB AA G2 :|
